src/icons/sun.svg

<?xml version="1.0" encoding="iso-8859-1"?>
<!-- Generator: Adobe Illustrator 19.0.0, SVG Export Plug-In . SVG Version: 6.00 Build 0)  -->
<svg version="1.1" id="Capa_1" xmlns="http://www.w3.org/2000/svg" xmlns:xlink="http://www.w3.org/1999/xlink" x="0px" y="0px"
	 viewBox="0 0 400 400" style="enable-background:new 0 0 400 400;" xml:space="preserve">
<path style="fill:#FFED00;" d="M130.46,65.02c2.126,3.412,1.084,7.902-2.329,10.029c-3.412,2.126-7.902,1.084-10.029-2.329
	c-0.085-0.137-0.166-0.277-0.242-0.42L97.34,36.78c-2.126-3.412-1.084-7.902,2.329-10.029c3.412-2.126,7.902-1.084,10.029,2.329
	c0.085,0.137,0.166,0.277,0.243,0.42L130.46,65.02z M72.3,117.86c3.412,2.126,4.455,6.616,2.329,10.029
	c-2.027,3.253-6.228,4.377-9.609,2.571l-35.56-20.52c-3.412-2.126-4.455-6.616-2.329-10.029c2.027-3.253,6.228-4.377,9.609-2.571
	L72.3,117.86z M48.3,192.66c4.032,0,7.3,3.268,7.3,7.3s-3.268,7.3-7.3,7.3h-41c-4.032,0-7.3-3.268-7.3-7.3
	c0-4.032,3.268-7.3,7.3-7.3l0,0H48.3z M64.98,269.46c3.412-2.126,7.902-1.084,10.029,2.329c2.126,3.412,1.084,7.902-2.329,10.029
	c-0.137,0.085-0.277,0.166-0.42,0.242l-35.48,20.56c-3.412,2.126-7.902,1.084-10.029-2.329c-2.126-3.412-1.084-7.902,2.329-10.029
	c0.137-0.085,0.277-0.166,0.42-0.243L64.98,269.46z M117.86,327.66c2.126-3.412,6.616-4.455,10.029-2.329
	c3.253,2.027,4.377,6.228,2.571,9.609l-20.52,35.56c-1.894,3.546-6.305,4.886-9.851,2.991s-4.886-6.305-2.991-9.851
	c0.076-0.143,0.157-0.283,0.243-0.42L117.86,327.66z M192.66,351.66c0-4.032,3.268-7.3,7.3-7.3c4.032,0,7.3,3.268,7.3,7.3v41.04
	c0,4.032-3.268,7.3-7.3,7.3c-4.032,0-7.3-3.268-7.3-7.3V351.66z M269.46,334.98c-1.894-3.546-0.555-7.957,2.991-9.851
	c3.38-1.806,7.582-0.681,9.609,2.571l20.52,35.56c2.126,3.412,1.084,7.902-2.329,10.029s-7.902,1.084-10.029-2.329
	c-0.085-0.137-0.166-0.277-0.243-0.42L269.46,334.98z M327.66,282.1c-3.546-1.894-4.886-6.305-2.991-9.851s6.305-4.886,9.851-2.991
	c0.143,0.076,0.283,0.157,0.42,0.243l35.56,20.52c3.546,1.894,4.886,6.305,2.991,9.851s-6.305,4.886-9.851,2.991
	c-0.143-0.076-0.283-0.157-0.42-0.243L327.66,282.1z M351.66,207.3c-4.032,0-7.3-3.268-7.3-7.3c0-4.032,3.268-7.3,7.3-7.3l0,0h41.04
	c4.032,0,7.3,3.268,7.3,7.3c0,4.032-3.268,7.3-7.3,7.3l0,0H351.66z M334.98,130.5c-3.412,2.126-7.902,1.084-10.029-2.329
	c-2.126-3.412-1.084-7.902,2.329-10.029c0.137-0.085,0.277-0.166,0.42-0.243l35.56-20.52c3.546-1.894,7.957-0.555,9.851,2.991
	c1.806,3.38,0.681,7.582-2.571,9.609L334.98,130.5z M282.1,72.3c-1.894,3.546-6.305,4.886-9.851,2.991
	c-3.546-1.894-4.886-6.305-2.991-9.851c0.076-0.143,0.157-0.283,0.243-0.42l20.52-35.56c1.894-3.546,6.305-4.886,9.851-2.991
	c3.546,1.894,4.886,6.305,2.991,9.851c-0.076,0.143-0.157,0.283-0.243,0.42L282.1,72.3z M207.3,48.3c0,4.032-3.268,7.3-7.3,7.3
	c-4.032,0-7.3-3.268-7.3-7.3l0,0v-41c0-4.032,3.268-7.3,7.3-7.3c4.032,0,7.3,3.268,7.3,7.3V48.3z M199.98,99.98
	c55.228,0,100,44.772,100,100s-44.772,100-100,100s-100-44.772-100-100S144.752,99.98,199.98,99.98z"/>
<g>
</g>
<g>
</g>
<g>
</g>
<g>
</g>
<g>
</g>
<g>
</g>
<g>
</g>
<g>
</g>
<g>
</g>
<g>
</g>
<g>
</g>
<g>
</g>
<g>
</g>
<g>
</g>
<g>
</g>
</svg>

<svg xmlns="http://www.w3.org/2000/svg" viewBox="0 0 400 400"><path d="M130.46 65.02a7.28 7.28 0 11-12.6 7.28L97.34 36.78a7.28 7.28 0 1112.601-7.28l20.519 35.52zM72.3 117.86a7.28 7.28 0 01-7.28 12.6l-35.56-20.52a7.28 7.28 0 017.28-12.6l35.56 20.52zm-24 74.8c4.032 0 7.3 3.268 7.3 7.3s-3.268 7.3-7.3 7.3h-41a7.3 7.3 0 01-7.3-7.3 7.3 7.3 0 017.3-7.3h41zm16.68 76.8a7.28 7.28 0 117.28 12.6l-35.48 20.56a7.28 7.28 0 11-7.28-12.601l35.48-20.559zm52.88 58.2a7.28 7.28 0 0112.6 7.28l-20.52 35.56a7.28 7.28 0 11-12.599-7.28l20.519-35.56zm74.8 24a7.3 7.3 0 017.3-7.3 7.3 7.3 0 017.3 7.3v41.04a7.3 7.3 0 01-7.3 7.3 7.3 7.3 0 01-7.3-7.3v-41.04zm76.8-16.68a7.28 7.28 0 0112.6-7.28l20.52 35.56a7.28 7.28 0 11-12.601 7.28l-20.519-35.56zm58.2-52.88a7.28 7.28 0 117.28-12.599l35.56 20.52a7.28 7.28 0 11-7.28 12.599l-35.56-20.52zm24-74.8a7.3 7.3 0 01-7.3-7.3 7.3 7.3 0 017.3-7.3h41.04a7.3 7.3 0 017.3 7.3 7.3 7.3 0 01-7.3 7.3h-41.04zm-16.68-76.8a7.28 7.28 0 11-7.28-12.601l35.56-20.52a7.28 7.28 0 017.28 12.6L334.98 130.5zM282.1 72.3a7.28 7.28 0 01-9.851 2.991 7.28 7.28 0 01-2.748-10.271l20.52-35.56a7.28 7.28 0 019.851-2.991 7.28 7.28 0 012.748 10.271L282.1 72.3zm-74.8-24a7.3 7.3 0 01-7.3 7.3 7.3 7.3 0 01-7.3-7.3v-41A7.3 7.3 0 01200 0a7.3 7.3 0 017.3 7.3v41zm-7.32 51.68c55.228 0 100 44.772 100 100s-44.772 100-100 100-100-44.772-100-100 44.772-100 100-100z" fill="#ffed00"/></svg>
